storage/app/icons/phosphoricons/bold/desk-bold.svg

<svg xmlns="http://www.w3.org/2000/svg" fill="currentColor" viewBox="0 0 256 256"><path d="M244 60H12a12 12 0 0 0 0 24h4v108a12 12 0 0 0 24 0v-36h176v36a12 12 0 0 0 24 0V84h4a12 12 0 0 0 0-24M40 84h76v48H40Zm176 48h-76V84h76Zm-116-24a12 12 0 0 1-12 12H68a12 12 0 0 1 0-24h20a12 12 0 0 1 12 12m56 0a12 12 0 0 1 12-12h20a12 12 0 0 1 0 24h-20a12 12 0 0 1-12-12"/></svg>

<svg xmlns="http://www.w3.org/2000/svg" viewBox="0 0 256 256" fill="currentColor"><path d="M244,60H12a12,12,0,0,0,0,24h4V192a12,12,0,0,0,24,0V156H216v36a12,12,0,0,0,24,0V84h4a12,12,0,0,0,0-24ZM40,84h76v48H40Zm176,48H140V84h76ZM100,108a12,12,0,0,1-12,12H68a12,12,0,0,1,0-24H88A12,12,0,0,1,100,108Zm56,0a12,12,0,0,1,12-12h20a12,12,0,0,1,0,24H168A12,12,0,0,1,156,108Z"/></svg>
